!!!OTL: DER HOLDSELIGEN SONDER DANK
!!!ARE: Europa, Mitteleuropa, Deutschland
!!!SCT: F0926
!!!YEM: Copyright 1995, estate of Helmut Schaffrath.
**kern
*ICvox
*Ivox
*M3/4
*k[f#c#g#]
*A:
=1
{2a
4cc#
=2
4.ee
8ff#
4ee
=3
2b
4dd
=4
2cc#
4r}
=5
{2a
4cc#
=6
4.ee
8ff#
4ee
=7
2b
4cc#
=8
2a
4r}
=9
{2a
4a
=10
4.aa
8gg#
4ff#
=11
4ff#
4ee
4dd#
=12
4.ee
8ff#
4ee}
=13
{2dd
4dd
=14
4.cc#
8dd
4cc#
=15
2b
4cc#
=16
2a
4r}
==
!!!AGN: Liebes - Lied
!!!ONB: ESAC (Essen Associative Code) Database: FINK
!!!AMT: simple triple
!!!AIN: vox
!!!EED: Helmut Schaffrath
!!!EEV: 1.0
*-
